X:1
T:Vandringen
M:6/8
N: Should be played with a speed of 1/10.
L:1/8
Q:1/8=100
C:Erik Gustavsson
K:Em
BGEA3 | BGEB,EG | BGEA2B | GE4z | BGEA3 | BGEB,EG |
BgB AfA GedcB(A- | c2)B A/c/B/A/G/F/ | E2.B.ez2 | BAB GEB, |
AGA F^DB, | GFG BAG | FE^D DEF | BAB GEB, | AGA F^DB, |
GFG BAG | A/c/B/A/G/F/ E2 z | G/B/A/G/F F/A/G/F/E | E/G/F/E/F/G/ A/c/B/A/B/c/ |
G/B/A/G/F F/A/G/F/E | E/G/F/E/F/G/ G/F/E/^D/E | G/B/A/G/F F/A/G/F/E |
E/G/F/E/F/G/ A/c/B/A/B/c/ | G/B/A/G/F F/A/G/F/E | E/G/F/E/F/G/ E E2 ||
